X:1
T:Blessed be the Lord
T:Blessed be the Lord
T:Francys Seager
C:Francys Seager
%%score [ 1 2 3 4 ]
L:1/8
Q:1/4=120
M:2/2
K:F
V:1 treble nm="Soprano" snm="S"
V:2 treble nm="Alto" snm="A"
V:3 treble-8 nm="Tenor" snm="T"
V:4 bass nm="Bass" snm="B"
V:1
 z8 | z8 | B8 | F4 F4 | G4 G4 | E4 E4 | D8 | z4 A4 | B4 G4 | B4 B4 | A8 | z4 A4 | B6 B2 | A4 F4 | %14
w: ||Blessed|be the|Lord me|_ re-|fuge,|my|whole powre,|strength and|myght,|yt|does in-|struct my|
 G4 G4 | F8 | z4 F4 | F4 F4 | B6 A2 | G2 F2 G4- | G4 ^F4 | G8 |] %22
w: hands to|warre|and|my fin-|gers _|_ _ _|* to|fyght.|
V:2
 D8 | D4 C4 | B,4 G,4 | A,4 A,4 | G,4 D4- | D4 C4 | B,8 | A,8 | D8 | G8 | ^F8 |"^-natural" z4 F4 | %12
w: Blessed|be the|Lord, blessed|be the|Lord me|_ re|fuge,|my|whole|powre,|strenght,|yt|
 G6 G2 | F4 D4 | B,4 C4 | D8 | C8 | D4 D4 | F8 | B,6 C2 | D8 | D8 |] %22
w: does in-|struct my|hands to|warre|and|my fin-|gers|to _|_|fyght.|
V:3
 B8 | A4 A4 | d4 c4 | d6 c2 | B4 G4 | A8 | F4 G4- | G4 ^F4 | G8 | d8 | d8 | z4 d4 | G6 G2 | d4 A4 | %14
w: Blessed|be the|Lord, blessed|be the|Lord me|re-|fuge, my|_ whole|powre,|and|strenght,|yt|does in-|struct my|
 G4 G4 | A4 B4- | B4 A4 | B8 | d8 | G8 | A8 | G8 |] %22
w: hands to|warre and|_ my|fin-|gers|to|_|fyght.|
V:4
 G,8 | F,4 F,4 | G,4 _E,4 | D,4 D,4 | G,,8 | z4 A,,4 | B,,4 G,,4 | D,8 | G,,8 | G,,8 | D,8 | D,8 | %12
w: Blessed|be the|Lord, blessed|be the|Lord|my|whole _|powre,|_|strenght|and|myght,|
 z8 | z4 D,4 | _E,6 E,2 | D,4 B,,4 | F,4 F,4 | B,,4 B,,4 | B,,4 B,,4 | _E,8 | D,4 D,4 | G,,8 |] %22
w: |my|hands to|warre and|my fin-|gers, and|my fin-|gers|_ to|fyght.|

